src/shared/assets/feed/icon/Group 2117132529.svg

<svg width="190" height="32" viewBox="0 0 190 32" fill="none" xmlns="http://www.w3.org/2000/svg">
<path d="M10.375 1.49909C13.6412 1.08213 23.055 0.857952 26.8975 1.49811C30.7395 2.13834 34.3495 3.96354 35.542 7.83795C37.0789 12.833 35.9266 18.9816 34.3897 21.2872C32.8527 23.5926 30.3548 25.7055 24.9756 25.3214C19.597 24.9372 17.6283 23.4008 17.4834 24.5528C17.0348 28.1309 17.3575 30.0795 13.0645 30.5089C9.2222 30.8931 4.43953 30.9308 2.1133 26.8585C0.577198 24.1686 0.000652513 18.4048 2.0121e-05 15.9073C-0.000612015 13.4095 0.000835355 8.22249 2.1133 5.34088C4.22585 2.45948 7.10921 1.91605 10.375 1.49909ZM87.2197 1.49909C90.4859 1.08212 99.8998 0.857927 103.742 1.49811C107.585 2.13833 111.194 3.96406 112.387 7.83893C113.923 12.8338 112.771 18.9816 111.234 21.2872C109.697 23.5925 107.199 25.7055 101.82 25.3214C96.4417 24.9371 94.473 23.4008 94.3281 24.5528C93.8796 28.1309 94.2021 30.0795 89.9092 30.5089C86.0669 30.893 81.2841 30.931 78.958 26.8585C77.4219 24.1687 76.8464 18.4048 76.8457 15.9073C76.8451 13.4095 76.8456 8.22249 78.958 5.34088C81.0706 2.45944 83.954 1.91605 87.2197 1.49909ZM164.068 1.49811C167.335 1.08119 176.747 0.858032 180.59 1.49811C184.432 2.1383 188.043 3.96339 189.235 7.83795C190.772 12.8329 189.619 18.9815 188.082 21.2872C186.545 23.5924 184.048 25.7054 178.669 25.3214C173.29 24.9372 171.322 23.401 171.177 24.5528C170.728 28.1309 171.051 30.0795 166.758 30.5089C162.915 30.8931 158.132 30.9312 155.806 26.8585C154.27 24.1686 153.694 18.4048 153.693 15.9073C153.693 13.4095 153.693 8.22251 155.806 5.34088C157.918 2.45931 160.802 1.91508 164.068 1.49811ZM56.4815 1.11432C67.8156 1.11445 72.8119 2.84423 74.541 10.1446C75.9515 16.1003 75.0223 23.1755 71.8496 26.4415C69.1239 29.2472 63.3968 30.4766 56.4815 30.4766C49.5666 30.4766 45.9881 29.1684 43.9932 28.171C41.1057 26.7271 39.087 24.3189 38.4209 21.169C37.4235 16.452 37.8436 9.77982 39.3819 7.26276C41.4958 3.80464 45.1474 1.11427 56.4815 1.11432ZM133.334 1.11432C144.668 1.11451 149.665 2.84423 151.394 10.1446C152.804 16.1001 151.875 23.1754 148.702 26.4415C145.977 29.2472 140.249 30.4765 133.334 30.4766C126.419 30.4766 122.84 29.1684 120.845 28.171C117.957 26.7271 115.94 24.319 115.273 21.169C114.276 16.4519 114.696 9.77967 116.234 7.26276C118.348 3.8047 122 1.11421 133.334 1.11432ZM56.0987 13.9864C54.1781 13.9865 53.6008 14.9469 53.6006 15.9073C53.6006 16.8678 54.3698 17.6367 56.0987 17.6368C57.8275 17.6367 59.1719 17.0599 59.1719 15.9073C59.1716 14.7549 58.0193 13.9865 56.0987 13.9864ZM132.95 13.9864C131.03 13.9865 130.453 14.9469 130.453 15.9073C130.453 16.8678 131.221 17.6367 132.95 17.6368C134.679 17.6367 136.024 17.0599 136.024 15.9073C136.024 14.7549 134.871 13.9865 132.95 13.9864ZM16.9072 12.0655C15.5633 12.0657 15.1776 13.0256 15.1778 13.794C15.1781 14.5625 15.5622 15.5234 16.9072 15.5235C18.2525 15.5235 21.1338 15.523 21.1338 13.794C21.1332 12.0655 18.2516 12.0654 16.9072 12.0655ZM93.751 12.0655C92.4068 12.0656 92.0213 13.0256 92.0215 13.794C92.0219 14.5625 92.4057 15.5235 93.751 15.5235C95.0964 15.5235 97.9776 15.5229 97.9776 13.794C97.9769 12.0656 95.0955 12.0654 93.751 12.0655ZM170.601 12.0645C169.256 12.0646 168.871 13.0256 168.871 13.794C168.872 14.5625 169.255 15.5225 170.601 15.5225C171.946 15.5225 174.827 15.5229 174.827 13.794C174.827 12.0654 171.945 12.0644 170.601 12.0645Z" fill="black"/>
<path d="M107.793 26.3525C107.314 24.8575 109.442 20.8941 111.107 19.252L114.539 25.5241C114.539 25.5241 108.273 27.8474 107.793 26.3525Z" fill="#F0DA9C"/>
<path d="M110.871 19.252C110.871 19.252 106.019 25.7608 108.15 26.7075C109.584 27.3449 112.291 23.8673 112.291 23.8673" stroke="black" stroke-width="1.34517" stroke-linecap="round" stroke-linejoin="round"/>
<path d="M117.145 4.81201C105.761 12.3362 112.506 24.341 112.506 24.341C112.506 24.341 109.074 24.341 109.547 27.2995C110.021 30.2581 115.656 30.1397 119.916 30.1397C124.159 30.1397 126.326 29.2474 127.081 28.9365L127.09 28.9328C127.145 30.3676 134.247 30.8003 143.101 30.5726C153.599 30.3026 153.807 25.0389 153.807 25.0389C153.807 25.0389 155.222 27.7484 156.647 26.8261C158.993 25.3085 156.264 18.6863 155.518 16.5344C156.539 13.8702 156.222 5.48452 146.672 2.12157C139.771 -0.308401 124.209 0.143595 117.145 4.81201Z" fill="#F0DA9C"/>
<path d="M127.09 28.9328C127.145 30.3676 134.247 30.8003 143.101 30.5726C153.599 30.3026 153.807 25.0389 153.807 25.0389C153.807 25.0389 155.222 27.7484 156.647 26.8261C158.993 25.3085 156.264 18.6863 155.518 16.5344C156.539 13.8702 156.222 5.48452 146.672 2.12157C139.771 -0.308401 124.209 0.143595 117.145 4.81201C105.761 12.3362 112.506 24.341 112.506 24.341C112.506 24.341 109.074 24.341 109.547 27.2995C110.021 30.2581 115.656 30.1397 119.916 30.1397C124.177 30.1397 126.343 29.2402 127.09 28.9328ZM127.09 28.9328C126.988 26.2686 127.497 25.0389 132.587 25.0389" stroke="black" stroke-width="1.34517" stroke-linecap="round" stroke-linejoin="round"/>
<path d="M128.572 16.6245C128.572 16.6245 129.649 16.6406 130.804 16.55C131.958 16.4594 132.294 15.77 132.294 15.77" stroke="black" stroke-width="1.21656" stroke-linecap="round" stroke-linejoin="round"/>
<circle cx="121.63" cy="13.6291" r="3.11383" fill="white" stroke="black" stroke-width="1.21656"/>
<ellipse cx="120.346" cy="13.2053" rx="2.07204" ry="2.56835" fill="black"/>
<circle cx="137.448" cy="11.7681" r="2.64857" fill="white" stroke="black" stroke-width="1.21656"/>
<ellipse cx="136.519" cy="11.5626" rx="1.54732" ry="2.12112" transform="rotate(15.0268 136.519 11.5626)" fill="black"/>
</svg>

<svg xmlns="http://www.w3.org/2000/svg" fill="none" viewBox="0 0 190 32"><path fill="#000" d="M10.375 1.5c3.266-.418 12.68-.642 16.523-.002s7.451 2.466 8.644 6.34c1.537 4.995.385 11.144-1.152 13.45s-4.035 4.418-9.414 4.033-7.348-1.92-7.493-.768c-.448 3.578-.125 5.526-4.418 5.956-3.843.384-8.625.422-10.952-3.65C.577 24.168.001 18.405 0 15.907S0 8.222 2.113 5.341s4.996-3.425 8.262-3.842m76.845 0c3.266-.418 12.68-.642 16.522-.002 3.843.64 7.452 2.466 8.645 6.34 1.536 4.996.384 11.144-1.153 13.45s-4.035 4.418-9.414 4.033-7.347-1.92-7.492-.768c-.448 3.578-.126 5.526-4.419 5.956-3.842.384-8.625.422-10.951-3.65-1.536-2.69-2.112-8.454-2.112-10.952s0-7.685 2.112-10.566 4.996-3.425 8.262-3.842m76.848-.002c3.267-.417 12.679-.64 16.522 0s7.453 2.465 8.645 6.34c1.537 4.995.384 11.144-1.153 13.45-1.537 2.304-4.034 4.417-9.413 4.033s-7.347-1.92-7.492-.768c-.449 3.578-.126 5.526-4.419 5.956-3.843.384-8.626.422-10.952-3.65-1.536-2.69-2.112-8.454-2.113-10.952s0-7.684 2.113-10.566 4.996-3.426 8.262-3.843M56.481 1.114c11.335 0 16.33 1.73 18.06 9.03 1.41 5.956.481 13.032-2.691 16.298-2.726 2.805-8.453 4.035-15.368 4.035s-10.494-1.309-12.489-2.306c-2.887-1.444-4.906-3.852-5.572-7.002-.998-4.717-.577-11.39.96-13.906 2.115-3.458 5.766-6.149 17.1-6.149m76.853 0c11.334 0 16.331 1.73 18.06 9.03 1.41 5.956.481 13.031-2.692 16.298-2.725 2.805-8.453 4.035-15.368 4.035s-10.494-1.309-12.489-2.306c-2.888-1.444-4.905-3.852-5.572-7.002-.997-4.717-.577-11.39.961-13.906 2.114-3.458 5.766-6.149 17.1-6.149M56.099 13.986c-1.92 0-2.498.96-2.498 1.921 0 .96.769 1.73 2.498 1.73s3.073-.577 3.073-1.73c0-1.152-1.153-1.92-3.073-1.92m76.851 0c-1.92 0-2.497.96-2.497 1.921 0 .96.768 1.73 2.497 1.73s3.074-.577 3.074-1.73c0-1.152-1.153-1.92-3.074-1.92m-116.043-1.92c-1.344 0-1.73.96-1.73 1.728.001.768.385 1.73 1.73 1.73 1.346 0 4.227-.001 4.227-1.73s-2.882-1.729-4.227-1.729m76.844 0c-1.344 0-1.73.96-1.73 1.728s.385 1.73 1.73 1.73 4.227-.001 4.227-1.73c-.001-1.728-2.882-1.729-4.227-1.729m76.85-.002c-1.345 0-1.73.962-1.73 1.73.001.768.384 1.729 1.73 1.729 1.345 0 4.226 0 4.226-1.729s-2.882-1.73-4.226-1.73"/><path fill="#f0da9c" d="M107.793 26.353c-.479-1.495 1.649-5.459 3.314-7.101l3.432 6.272s-6.266 2.323-6.746.828"/><path stroke="#000" stroke-linecap="round" stroke-linejoin="round" stroke-width="1.345" d="M110.871 19.252s-4.852 6.509-2.721 7.456c1.434.637 4.141-2.84 4.141-2.84"/><path fill="#f0da9c" d="M117.145 4.812c-11.384 7.524-4.639 19.529-4.639 19.529s-3.432 0-2.959 2.958c.474 2.96 6.109 2.84 10.369 2.84 4.243 0 6.41-.892 7.165-1.203l.009-.003c.055 1.435 7.157 1.867 16.011 1.64 10.498-.27 10.706-5.534 10.706-5.534s1.415 2.71 2.84 1.787c2.346-1.518-.383-8.14-1.129-10.292 1.021-2.664.704-11.05-8.846-14.412-6.901-2.43-22.463-1.978-29.527 2.69"/><path stroke="#000" stroke-linecap="round" stroke-linejoin="round" stroke-width="1.345" d="M127.09 28.933c.055 1.435 7.157 1.867 16.011 1.64 10.498-.27 10.706-5.534 10.706-5.534s1.415 2.71 2.84 1.787c2.346-1.518-.383-8.14-1.129-10.292 1.021-2.664.704-11.05-8.846-14.412-6.901-2.43-22.463-1.978-29.527 2.69-11.384 7.524-4.639 19.529-4.639 19.529s-3.432 0-2.959 2.958c.474 2.96 6.109 2.84 10.369 2.84 4.261 0 6.427-.899 7.174-1.206m0 0c-.102-2.664.407-3.894 5.497-3.894"/><path stroke="#000" stroke-linecap="round" stroke-linejoin="round" stroke-width="1.217" d="M128.572 16.625s1.077.016 2.232-.075c1.154-.09 1.49-.78 1.49-.78"/><circle cx="121.63" cy="13.629" r="3.114" fill="#fff" stroke="#000" stroke-width="1.217"/><ellipse cx="120.346" cy="13.205" fill="#000" rx="2.072" ry="2.568"/><circle cx="137.448" cy="11.768" r="2.649" fill="#fff" stroke="#000" stroke-width="1.217"/><ellipse cx="136.519" cy="11.563" fill="#000" rx="1.547" ry="2.121" transform="rotate(15.027 136.519 11.563)"/></svg>
